src/4-icons/input-text.svg

<svg width="260" height="260" viewBox="0 0 260 260" fill="none" xmlns="http://www.w3.org/2000/svg">
<g opacity="0.9">
<path d="M106 95.126C103.209 92.626 99.5838 91.0423 95.5 91.0423H85V101.542H95.5C98.3337 101.542 100.751 103.959 100.751 106.791V180.25C100.751 183.083 98.3337 185.5 95.5 185.5H85V196H95.5C99.5415 196 103.209 194.416 106 191.916C108.791 194.416 112.459 196 116.5 196H127V185.5H116.5C113.666 185.5 111.249 183.083 111.249 180.25V106.749C111.249 103.915 113.624 101.5 116.5 101.5H127V91H116.5C112.459 91.0407 108.791 92.5837 106 95.1244V95.126Z" fill="black"/>
<path d="M49.0095 100.002H60.3096L60.3716 100V118.098H71V126.997H60.3716V169.353C60.3716 171.616 61.1351 173.133 62.723 173.908C63.5784 174.324 65.0446 174.562 67.0595 174.562C67.608 174.562 68.1896 174.562 68.8001 174.533C69.4109 174.504 70.1434 174.444 70.9678 174.325V182.987C69.6853 183.345 68.342 183.613 66.9677 183.762C65.5623 183.91 64.0663 184 62.4474 184C57.2245 184 53.6813 182.721 51.819 180.101C49.9257 177.482 49.0095 174.118 49.0095 169.951V126.999H40V118.1H49.0095V100.002Z" fill="black"/>
<path fill-rule="evenodd" clip-rule="evenodd" d="M20 61C8.95431 61 0 69.9543 0 81V206C0 217.046 8.9543 226 20 226H240C251.046 226 260 217.046 260 206V81C260 69.9543 251.046 61 240 61H20ZM29 75C20.7157 75 14 81.7157 14 90V197C14 205.284 20.7157 212 29 212H231C239.284 212 246 205.284 246 197V90C246 81.7157 239.284 75 231 75H29Z" fill="black"/>
</g>
</svg>

<svg width="260" height="260" viewBox="0 0 260 260" fill="none" xmlns="http://www.w3.org/2000/svg"><g opacity=".9" fill="#000"><path d="M106 95.126c-2.791-2.5-6.416-4.084-10.5-4.084H85v10.5h10.5c2.834 0 5.251 2.417 5.251 5.249v73.459c0 2.833-2.417 5.25-5.251 5.25H85V196h10.5c4.041 0 7.709-1.584 10.5-4.084 2.791 2.5 6.459 4.084 10.5 4.084H127v-10.5h-10.5c-2.834 0-5.251-2.417-5.251-5.25v-73.501c0-2.834 2.375-5.249 5.251-5.249H127V91h-10.5a15.756 15.756 0 0 0-10.5 4.124v.002Zm-56.99 4.876h11.3l.062-.002v18.098H71v8.899H60.372v42.356c0 2.263.763 3.78 2.351 4.555.855.416 2.322.654 4.337.654.548 0 1.13 0 1.74-.029.61-.029 1.343-.089 2.168-.208v8.662a24.894 24.894 0 0 1-4 .775 42.93 42.93 0 0 1-4.52.238c-5.224 0-8.767-1.279-10.629-3.899-1.893-2.619-2.81-5.983-2.81-10.15v-42.952H40V118.1h9.01v-18.098Z"/><path fill-rule="evenodd" clip-rule="evenodd" d="M20 61C8.954 61 0 69.954 0 81v125c0 11.046 8.954 20 20 20h220c11.046 0 20-8.954 20-20V81c0-11.046-8.954-20-20-20H20Zm9 14c-8.284 0-15 6.716-15 15v107c0 8.284 6.716 15 15 15h202c8.284 0 15-6.716 15-15V90c0-8.284-6.716-15-15-15H29Z"/></g></svg>
